components/icon/svg/24/action_discount.svg

<?xml version="1.0" encoding="UTF-8"?>
<svg width="24px" height="24px" viewBox="0 0 24 24" version="1.1" xmlns="http://www.w3.org/2000/svg" xmlns:xlink="http://www.w3.org/1999/xlink">
    <!-- Generator: Sketch 64 (93537) - https://sketch.com -->
    <title>ic-db_action_discount_24</title>
    <desc>Created with Sketch.</desc>
    <g id="Symbols:Icon" stroke="none" stroke-width="1" fill="none" fill-rule="evenodd">
        <g id="24dp-Icon/Action/Discount" fill="#282D37">
            <path d="M12,2.14 C12.6557196,2.14 13.238616,2.43139647 13.6514535,2.94146959 L14.5257464,4.01002675 C14.5499518,4.05854111 14.6228785,4.05854111 14.6957018,4.03433565 L15.9828322,3.69432138 C16.1770965,3.64570358 16.3471553,3.62139469 16.5414197,3.62139469 C17.5856679,3.62139469 18.5814018,4.42286428 18.6543285,5.63717139 L18.7271518,7.02143392 C18.7271518,7.07005172 18.7756661,7.11856608 18.8242839,7.14287498 L20.1114143,7.62853576 C20.9370894,7.94424113 21.4713679,8.72140182 21.4713679,9.59569467 C21.4713679,10.0085322 21.3500303,10.4214732 21.1314571,10.761384 L20.3786053,11.9271767 C20.3542964,11.9756911 20.3542964,12.0243089 20.3786053,12.0728233 L21.1314571,13.238616 C21.3500303,13.5785268 21.4713679,13.9914678 21.4713679,14.4043053 C21.4713679,15.2056715 21.0100161,16.03145 20.1114143,16.3714642 L18.8242839,16.857125 C18.7514607,16.8814339 18.7271518,16.9057428 18.7271518,16.9785661 L18.6543285,18.3628286 C18.6057107,19.5043125 17.6585946,20.3786053 16.5414197,20.3786053 C16.3471553,20.3786053 16.1770965,20.3542964 15.9828322,20.3056786 L14.6957018,19.9656643 C14.6228785,19.9414589 14.5499518,19.9414589 14.5257464,19.9899732 L13.6514535,21.0585304 C13.238616,21.5686035 12.6557196,21.86 12,21.86 C11.3442804,21.86 10.761384,21.5686035 10.3485465,21.0585304 L9.49856251,19.9899732 C9.45004815,19.9414589 9.40143035,19.91715 9.3286071,19.9414589 L8.01716783,20.3056786 C7.82290351,20.3542964 7.65284466,20.3786053 7.45858035,20.3786053 C6.41433208,20.3786053 5.41859818,19.5771357 5.34567148,18.3628286 L5.27284823,16.9785661 C5.27284823,16.9299483 5.24853933,16.8814339 5.17571607,16.857125 L3.8885857,16.3714642 C3.06291065,16.0557589 2.52863207,15.2785982 2.52863207,14.4043053 C2.52863207,13.9914678 2.64996968,13.5785268 2.86854289,13.238616 L3.62139469,12.0728233 C3.64570358,12.0243089 3.64570358,11.9756911 3.62139469,11.9271767 L2.86854289,10.761384 C2.64996968,10.4214732 2.52863207,10.0085322 2.52863207,9.59569467 C2.52863207,8.79432852 2.98998395,7.96855003 3.8885857,7.62853576 L5.17571607,7.14287498 C5.22433387,7.11856608 5.27284823,7.07005172 5.27284823,7.02143392 L5.34567148,5.63717139 C5.39428928,4.49568753 6.34140539,3.62139469 7.45858035,3.62139469 C7.65284466,3.62139469 7.82290351,3.64570358 8.01716783,3.69432138 L9.3042982,4.03433565 C9.35281256,4.05854111 9.45004815,4.03433565 9.47425361,4.01002675 L10.3485465,2.94146959 C10.761384,2.43139647 11.3442804,2.14 12,2.14 Z M11.9028678,4.20429106 L11.028575,5.27284823 C10.6157375,5.78281791 10.0085322,6.05000892 9.37712146,6.05000892 C9.20716604,6.05000892 9.01290173,6.02570002 8.81853398,5.97718566 L7.48288925,5.63717139 C7.40996255,5.61286249 7.33713929,5.66148029 7.33713929,5.73430355 L7.26431603,7.11856608 C7.21569823,7.96855003 6.68141965,8.67288746 5.90425896,8.98859283 L4.61712859,9.49856251 C4.54430533,9.52287141 4.51999643,9.62000357 4.56861423,9.69282682 L5.29715713,10.8343107 C5.51573034,11.1985304 5.63717139,11.5871625 5.63717139,12 C5.63717139,12.4128375 5.51573034,12.8014696 5.29715713,13.1656893 L4.56861423,14.2828643 C4.54430533,14.3556875 4.54430533,14.4528197 4.61712859,14.4771286 L5.90425896,15.0114072 C6.68141965,15.3271125 7.21569823,16.03145 7.26431603,16.8814339 L7.33713929,18.2656965 C7.33713929,18.3385197 7.38575709,18.3871375 7.48288925,18.3628286 L8.81853398,18.0228143 C9.01290173,17.9743 9.20716604,17.9499911 9.37712146,17.9499911 C10.0085322,17.9499911 10.6157375,18.2171821 11.028575,18.7271518 L11.9028678,19.7957089 C11.9513822,19.8685322 12.0486178,19.8685322 12.0971322,19.7957089 L12.971425,18.7271518 C13.3842625,18.2171821 13.9914678,17.9499911 14.6228785,17.9499911 C14.792834,17.9499911 14.9870983,17.9743 15.181466,18.0228143 L16.5171108,18.3628286 C16.5900375,18.3871375 16.6628607,18.3143143 16.6628607,18.2656965 L16.735684,16.8814339 C16.7843018,16.03145 17.3185803,15.3271125 18.095741,15.0114072 L19.3828714,14.5014375 C19.4800074,14.4771286 19.5043125,14.3799964 19.4556947,14.3313786 L18.7028429,13.1656893 C18.4842697,12.8014696 18.3628286,12.4128375 18.3628286,12 C18.3628286,11.5871625 18.4842697,11.1985304 18.7028429,10.8343107 L19.4313858,9.71713572 C19.4800074,9.62000357 19.4556947,9.52287141 19.3828714,9.49856251 L18.095741,8.98859283 C17.3185803,8.67288746 16.7843018,7.96855003 16.735684,7.11856608 L16.6628607,5.73430355 C16.6628607,5.66148029 16.5900375,5.61286249 16.5171108,5.63717139 L15.181466,5.97718566 C14.9870983,6.02570002 14.792834,6.05000892 14.6228785,6.05000892 C13.9914678,6.05000892 13.3842625,5.78281791 12.971425,5.27284823 L12.0971322,4.20429106 C12.0486178,4.13146781 11.9513822,4.13146781 11.9028678,4.20429106 Z M15.0114072,15.0114072 C15.5699946,15.0114072 16.0071411,14.5742607 16.0071411,14.0156733 C16.0071411,13.4571892 15.5699946,13.0200428 15.0114072,13.0200428 C14.4528197,13.0200428 14.0156733,13.4571892 14.0156733,14.0156733 C14.0156733,14.5742607 14.4528197,15.0114072 15.0114072,15.0114072 Z M9.98432673,15.0114072 C9.50187266,15.0114072 8.98859283,14.6387052 8.98859283,13.9914678 C8.98859283,13.7485857 9.08572499,13.4813947 9.2799893,13.2871304 L13.2871304,9.2799893 C13.4813947,9.08572499 13.7485857,8.98859283 13.9914678,8.98859283 C14.5727091,8.98859283 15.0114072,9.43339397 15.0114072,10.0085322 C15.0114072,10.2514143 14.914275,10.5186053 14.7200107,10.7128696 L10.7128696,14.7200107 C10.5186053,14.914275 10.2514143,15.0114072 9.98432673,15.0114072 Z M9.01290173,11.0042661 C9.59569467,11.0042661 10.05715,10.5428108 10.05715,9.96001783 C10.05715,9.40143035 9.59569467,8.91566613 9.01290173,8.91566613 C8.43000535,8.91566613 7.96855003,9.40143035 7.96855003,9.96001783 C7.96855003,10.5428108 8.43000535,11.0042661 9.01290173,11.0042661 Z" id="🎨-Color"></path>
        </g>
    </g>
</svg>

<svg width="24" height="24" xmlns="http://www.w3.org/2000/svg"><path d="M12 2.14c.656 0 1.239.291 1.651.801l.875 1.069c.024.049.097.049.17.024l1.287-.34a2.124 2.124 0 012.671 1.943l.073 1.384c0 .05.049.098.097.122l1.287.486a2.1 2.1 0 011.36 1.967c0 .413-.121.825-.34 1.165l-.752 1.166a.155.155 0 000 .146l.752 1.166c.219.34.34.752.34 1.165 0 .802-.461 1.627-1.36 1.967l-1.287.486c-.073.024-.097.049-.097.122l-.073 1.384a2.111 2.111 0 01-2.113 2.016c-.194 0-.364-.025-.558-.073l-1.287-.34c-.073-.025-.146-.025-.17.024l-.875 1.069c-.412.51-.995.801-1.651.801a2.094 2.094 0 01-1.651-.801l-.85-1.069c-.049-.049-.098-.073-.17-.049l-1.312.365a2.124 2.124 0 01-2.671-1.943l-.073-1.384c0-.05-.024-.098-.097-.122l-1.287-.486a2.1 2.1 0 01-1.36-1.967c0-.413.121-.825.34-1.165l.752-1.166a.155.155 0 000-.146l-.752-1.166a2.178 2.178 0 01-.34-1.165c0-.802.461-1.627 1.36-1.967l1.287-.486c.048-.024.097-.073.097-.122l.073-1.384a2.111 2.111 0 012.113-2.016c.194 0 .364.025.558.073l1.287.34c.049.025.146 0 .17-.024l.875-1.069c.412-.51.995-.801 1.651-.801zm-.097 2.064l-.874 1.069c-.413.51-1.02.777-1.652.777-.17 0-.364-.024-.558-.073l-1.336-.34c-.073-.024-.146.024-.146.097L7.264 7.12c-.048.85-.583 1.554-1.36 1.87l-1.287.51c-.073.024-.097.121-.048.194l.728 1.141c.219.365.34.753.34 1.166 0 .413-.121.801-.34 1.166l-.728 1.117c-.025.073-.025.17.048.194l1.287.534c.777.316 1.312 1.02 1.36 1.87l.073 1.385c0 .073.049.121.146.097l1.336-.34c.194-.049.388-.073.558-.073.632 0 1.239.267 1.652.777l.874 1.069a.114.114 0 00.194 0l.874-1.069a2.106 2.106 0 011.652-.777c.17 0 .364.024.558.073l1.336.34c.073.024.146-.049.146-.097l.073-1.385c.048-.85.583-1.554 1.36-1.87l1.287-.51c.097-.024.121-.121.073-.17l-.753-1.165a2.241 2.241 0 01-.34-1.166c0-.413.121-.801.34-1.166l.728-1.117c.049-.097.025-.194-.048-.218l-1.287-.51c-.777-.316-1.312-1.02-1.36-1.87l-.073-1.385c0-.073-.073-.121-.146-.097l-1.336.34a2.358 2.358 0 01-.558.073 2.106 2.106 0 01-1.652-.777l-.874-1.069a.114.114 0 00-.194 0zm3.108 10.807a.985.985 0 00.996-.995.985.985 0 00-.996-.996.985.985 0 00-.995.996c0 .558.437.995.995.995zm-5.027 0a.996.996 0 01-.995-1.02c0-.242.097-.51.291-.704l4.007-4.007c.194-.194.462-.291.704-.291.582 0 1.02.444 1.02 1.02 0 .242-.097.51-.291.704l-4.007 4.007a1.028 1.028 0 01-.729.291zm-.971-4.007c.583 0 1.044-.461 1.044-1.044 0-.559-.461-1.044-1.044-1.044S7.969 9.4 7.969 9.96c0 .583.461 1.044 1.044 1.044z" fill="#282D37" fill-rule="evenodd"/></svg>
